!!!!SEGMENT: Gom2017-Homo_erat_in_Jerusalem.krn
!!!id: Gom2017
!!!AGN: Motet
!!!voices: 4
!!!COM: Nicolas Gombert
!!!OTL: Homo erat in Jerusalem
**kern	**kern	**kern	**kern
*part4	*part3	*part2	*part1
*staff4	*staff3	*staff2	*staff1
*I"Bassus	*I"Tenor	*I"Altus	*I"Superius
*I'B	*I'T	*I'A	*I'S
*clefF4	*clefGv2	*clefGv2	*clefG2
*k[b-]	*k[b-]	*k[b-]	*k[b-]
*M2/1	*M2/1	*M2/1	*M2/1
*met(C|)	*met(C|)	*met(C|)	*met(C|)
=1	=1	=1	=1
!!section: Prima pars: Homo erat
!!!OMD: Prima pars: Homo erat
0r	0r	0r	0cc
=2	=2	=2	=2
0r	0r	0r	1a
.	.	.	1b-y
=3	=3	=3	=3
0r	0r	0f	1cc
.	.	.	2r
.	.	.	2f
=4	=4	=4	=4
0r	1r	1d	2f
.	.	.	2f
.	[1c	1e	1g
=5	=5	=5	=5
0F	1c]	1f	0a
.	1A	2r	.
.	.	2F	.
=6	=6	=6	=6
1D	1B-y	2F	0r
.	.	2F	.
1E	1c	1G	.
=7	=7	=7	=7
1F	2r	0A	0r
.	2c	.	.
2r	2c	.	.
2F	2c	.	.
=8	=8	=8	=8
2F	1d	0r	0r
2F	.	.	.
1G	2.e	.	.
.	4d	.	.
=9	=9	=9	=9
2.A	4c	1c	1r
.	4B-y	.	.
.	2.A	.	.
4G	.	.	.
2F	.	2c	1f
.	4G	.	.
2E	[2c	2c	.
=10	=10	=10	=10
1D	2c]	1d	2f
.	2BnXi	.	2f
1C	1c	1e	1g
=11	=11	=11	=11
0r	2r	1.f	2.a
.	2F	.	.
.	.	.	4g
.	2F	.	4a
.	.	.	4b-y
.	2F	2e	[2cc
=12	=12	=12	=12
1r	1G	1d	2cc]
.	.	.	2bnXi
1F	2.A	1c	1cc
.	4G	.	.
=13	=13	=13	=13
2F	4A	2r	0r
.	4B-y	.	.
2E	1c	2c	.
1D	.	[1f	.
.	2BnXi	.	.
=14	=14	=14	=14
0C	1c	2f]	1g
.	.	2e	.
.	1r	2c	[1cc
.	.	2e	.
=15	=15	=15	=15
1r	1G	1d	2cc]
.	.	.	2b-y
1C	[1c	1e	2.g
.	.	.	4f
=16	=16	=16	=16
1.G	2c]	2.d	4g
.	.	.	4a
.	2B-y	.	2.b-y
.	.	4c	.
.	2G	4d	.
.	.	4e	4a
2F	2A	[2f	[2a
=17	=17	=17	=17
2D	1B-y	2f]	2a]
2E	.	2e	2g
1F	1A	2c	2a
.	.	[2d	2f
=18	=18	=18	=18
1E	1G	2d]	2g
.	.	1c	2e
1D	2.F	.	2f
.	.	2B-y	4e
.	4G	.	4d
=19	=19	=19	=19
2C	2A	2c	2e
2BB-y	2B-y	2d	1f
1C	1G	1c	.
.	.	.	2e
=20	=20	=20	=20
0FF	0F	1A	0f
.	.	2r	.
.	.	[2f	.
=21	=21	=21	=21
0r	0r	2f]	1cc
.	.	2e	.
.	.	2d	2b-y
.	.	[2f	2a
=22	=22	=22	=22
0r	0r	2f]	1cc
.	.	2c	.
.	.	2r	1g
.	.	2c	.
=23	=23	=23	=23
0r	0r	2d	2r
.	.	2e	2g
.	.	2f	2a
.	.	[2g	2b-y
=24	=24	=24	=24
0r	1.c	4g]	2.cc
.	.	4f	.
.	.	4e	.
.	.	4d	4b-y
.	.	2e	4a
.	.	.	4g
.	2B-y	[2f	[2dd
=25	=25	=25	=25
0r	2A	2f]	4dd]
.	.	.	4cc
.	2c	2e	1cc
.	2G	1d	.
.	2G	.	2bnXi
=26	=26	=26	=26
1.F	2.A	2c	1cc
.	.	1a	.
.	4B-y	.	.
.	1c	.	1r
2E	.	[2g	.
=27	=27	=27	=27
2D	2B-y	4g]	1r
.	.	4f	.
2F	2A	1f	.
2C	1G	.	[1cc
2C	.	2e	.
=28	=28	=28	=28
2.D	1F	1d	2cc]
.	.	.	2b-y
4E	.	.	.
[1F	2r	1c	2a
.	2A	.	2cc
=29	=29	=29	=29
2F]	1B-y	1r	2g
2E	.	.	2g
1D	1F	1d	2.a
.	.	.	4b-y
=30	=30	=30	=30
2C	2.G	2e	2cc
2G	.	2d	2b-y
.	4A	.	.
2.A	2D	2f	1a
.	2F	2c	.
4B-y	.	.	.
=31	=31	=31	=31
2c	2C	2.e	0g
2C	1c	.	.
.	.	4f	.
1G	.	1d	.
.	2BnXi	.	.
=32	=32	=32	=32
0C	0c	0e	1r
.	.	.	1g
=33	=33	=33	=33
0r	0r	1r	2a
.	.	.	1g
.	.	1c	.
.	.	.	2e
=34	=34	=34	=34
0r	0r	2d	2f
.	.	1c	2g
.	.	.	1a
.	.	2A	.
=35	=35	=35	=35
0r	1r	2B-y	2g
.	.	2c	2a
.	1G	1d	4b-y
.	.	.	4a
.	.	.	4g
.	.	.	4f
=36	=36	=36	=36
1r	2A	2c	4e
.	.	.	4c
.	1G	2B-y	2d
1C	.	1c	2e
.	2E	.	2g
=37	=37	=37	=37
2D	2F	1r	2f
1C	2G	.	2.e
.	1A	1c	.
.	.	.	4c
2AA	.	.	[2f
=38	=38	=38	=38
2BB-y	1G	2d	2f]
2C	.	2c	2e
1D	1F	2A	1f
.	.	2B-y	.
=39	=39	=39	=39
1C	2.G	2c	0r
.	.	2c	.
.	4A	.	.
1BB-y	4B-y	1d	.
.	4c	.	.
.	[2B-y	.	.
=40	=40	=40	=40
1F	2B-]	1c	0r
.	2A	.	.
2G	1B-y	1r	.
[2B-y	.	.	.
=41	=41	=41	=41
4B-]	1F	1c	0r
4A	.	.	.
4F	.	.	.
4A	.	.	.
2G	1r	2d	.
2F	.	[2f	.
=42	=42	=42	=42
2.A	1.r	4f]	0r
.	.	4e	.
.	.	4c	.
4G	.	4e	.
2F	.	2d	.
2E	2c	[2c	.
=43	=43	=43	=43
1D	2d	2c]	1r
.	2.f	2BnXi	.
1C	.	1c	1g
.	4e	.	.
.	4c	.	.
.	4e	.	.
=44	=44	=44	=44
0r	2d	0r	2a
.	2c	.	2.cc
.	2.e	.	.
.	.	.	4b-y
.	.	.	4g
.	4d	.	4b-y
=45	=45	=45	=45
2r	2.c	0r	2a
2C	.	.	1g
.	4B-y	.	.
2D	4A	.	.
.	4G	.	.
[2F	2A	.	2f
=46	=46	=46	=46
4F]	2r	1c	1g
4E	.	.	.
4C	2G	.	.
4E	.	.	.
2D	2A	2d	2f
2C	[2c	2e	2g
=47	=47	=47	=47
1.F	4c]	4f	2a
.	4B-y	4e	.
.	4A	4d	1f
.	4G	4c	.
.	2A	2d	.
2E	2G	[2c	2g
=48	=48	=48	=48
1D	1F	2c]	2a
.	.	2B-y	4g
.	.	.	4f
[1C	1G	2.c	1e
.	.	4d	.
=49	=49	=49	=49
1C]	2r	4e	2c
.	.	4f	.
.	2G	1g	2.cc
1r	2.A	.	.
.	.	.	4b-y
.	.	[2f	2a
.	4B-y	.	.
=50	=50	=50	=50
1C	1c	2f]	1g
.	.	2e	.
2.D	2F	2f	[1f
.	[2B-y	2d	.
4E	.	.	.
=51	=51	=51	=51
1F	2B-]	1c	1f]
.	2A	.	.
2BB-y	4F	1r	1r
.	4G	.	.
[2F	4A	.	.
.	4B-y	.	.
=52	=52	=52	=52
2F]	4c	0r	0r
.	4d	.	.
2E	2.e	.	.
2C	.	.	.
.	4d	.	.
2E	[2c	.	.
=53	=53	=53	=53
1D	2c]	0r	1.r
.	2BnXi	.	.
2.C	[1c	.	.
.	.	.	[2g
4D	.	.	.
=54	=54	=54	=54
2E	1c]	1.r	2g]
1F	.	.	2a
.	1r	.	2f
2E	.	[2c	2g
=55	=55	=55	=55
1F	0r	2c]	1a
.	.	2d	.
2G	.	2B-y	2g
2A	.	2c	[2cc
=56	=56	=56	=56
1G	2r	1d	2cc]
.	1G	.	2b-y
1C	.	2e	2g
.	2A	2c	[2cc
=57	=57	=57	=57
1.r	2F	1d	4cc]
.	.	.	8bnXiL
.	.	.	8aJ
.	2G	.	2bnXi
.	2A	1c	1cc
[2C	[2G	.	.
=58	=58	=58	=58
2C]	4G]	0r	0r
.	4A	.	.
2D	4B-y	.	.
.	4c	.	.
2BB-y	2d	.	.
2C	[2c	.	.
=59	=59	=59	=59
1D	2c]	0r	1r
.	2B-y	.	.
1C	2A	.	1c
.	4G	.	.
.	4A	.	.
=60	=60	=60	=60
0r	4B-y	2r	2d
.	4c	.	.
.	1d	1G	2B-y
.	.	.	1c
.	[2c	2A	.
=61	=61	=61	=61
0r	2c]	2F	1d
.	2B-y	2G	.
.	1c	1A	2c
.	.	.	[2f
=62	=62	=62	=62
1.r	1r	2.G	2f]
.	.	.	2e
.	.	4A	.
.	1G	2B-y	2d
[2C	.	[2c	[2e
=63	=63	=63	=63
2C]	2A	2c]	4e]
.	.	.	4c
2D	2F	4B-y	1f
.	.	4A	.
2BB-y	2G	2d	.
2C	[2A	[2c	2e
=64	=64	=64	=64
1D	2A]	2c]	4d
.	.	.	4c
.	4G	2B-y	1f
.	4F	.	.
1C	1G	[1c	.
.	.	.	2e
=65	=65	=65	=65
1r	1F	1c]	[0f
1F	1A	1r	.
=66	=66	=66	=66
2F	2A	1c	1f]
2F	2A	.	.
[1F	[1A	2c	1r
.	.	2c	.
=67	=67	=67	=67
2F]	2A]	1.c	0r
2E	2G	.	.
2F	2A	.	.
2D	2F	2B-y	.
=68	=68	=68	=68
1C	2G	2c	1r
.	2.c	2A	.
1r	.	2G	1g
.	4B-y	.	.
.	[2e-i	[2c	.
=69	=69	=69	=69
0r	4e-]	4c]	2g
.	4d	4B-y	.
.	2c	2e-i	2g
.	2B-y	2d	[1g
.	2e-i	2c	.
=70	=70	=70	=70
0r	1d	2B-y	2g]
.	.	1d	2f
.	2B-y	.	2g
.	2c	[2c	2e
=71	=71	=71	=71
1r	2.G	2c]	1d
.	.	2B-y	.
.	4B-y	.	.
1C	2A	[1c	[1c
.	2G	.	.
=72	=72	=72	=72
1.F	1A	1c]	1c]
.	1G	2r	1r
2E	.	2G	.
=73	=73	=73	=73
1A	1F	1.c	0r
2.G	2r	.	.
.	2G	2B-y	.
4F	.	.	.
=74	=74	=74	=74
2E	1.c	2G	1.r
2F	.	2A	.
1D	.	1F	.
.	2B-y	.	2d
=75	=75	=75	=75
1C	1e-i	1c	1.g
1r	2.d	2r	.
.	.	2d	2f
.	4c	.	.
=76	=76	=76	=76
1r	2B-y	1.g	2b-y
.	2c	.	2g
1D	1A	.	1a
.	.	2f	.
=77	=77	=77	=77
1.G	1G	1b-y	2d
.	.	.	2dd
.	1r	2.a	2ee
2F	.	.	[2ff
.	.	4g	.
=78	=78	=78	=78
1B-y	0r	2f	4ff]
.	.	.	4ee
.	.	2g	1dd
2.A	.	1e	.
.	.	.	[2cc
4G	.	.	.
=79	=79	=79	=79
2F	2r	1d	4cc]
.	.	.	4a
2G	2G	.	2b-y
1E	[1c	2r	2g
.	.	2c	2g
=80	=80	=80	=80
1D	2c]	2f	2a
.	2B-y	2f	2b-y
2r	1e-i	1g	2cc
2C	.	.	2g
=81	=81	=81	=81
1.F	2d	2.f	2.a
.	2.c	.	.
.	.	4g	4b-y
.	.	2a	2cc
.	4d	.	.
2E	[2e	[2g	2g
=82	=82	=82	=82
1A	2e]	2g]	1.cc
.	4d	2f	.
.	4c	.	.
2.G	1d	2g	.
.	.	2d	2b-y
4F	.	.	.
=83	=83	=83	=83
2E	1c	2e	2g
2F	.	2.c	2.a
1D	1F	.	.
.	.	4A	4g
.	.	2B-y	[2f
=84	=84	=84	=84
1C	1G	1c	2f]
.	.	.	2e
2r	1F	2r	[1fl
2F	.	2F	.
=85	=85	=85	=85
2D	1r	1.B-y	0f_
4BB-y	.	.	.
4C	.	.	.
4D	1F	.	.
4E	.	.	.
2F	.	2A	.
=86	=86	=86	=86
2D	1.B-y	1d	0f_
2BB-y	.	.	.
1F	.	1c	.
.	2A	.	.
=87	=87	=87	=87
1BB-y	1d	1B-y	0f_
1F	1c	1A	.
=88	=88	=88	=88
1.BB-y	1.d	1.B-y	0f_
2F	2c	2c	.
=89	=89	=89	=89
1BB-y	2B-y	1d	0f_
.	2B-y	.	.
[1FFl	[1Al	[1cl	.
=90	=90	=90	=90
0FF]	0A]	0c]	0f]
=91||	=91||	=91||	=91||
*M2/1	*M2/1	*M2/1	*M2/1
*met(C|)	*met(C|)	*met(C|)	*met(C|)
!!section: Secunda pars: Et cum inducerent
!!!OMD: Secunda pars: Et cum inducerent
0F	0A	0c	[0f
=92	=92	=92	=92
1.BB-y	1.B-y	1.d	1.f]
2BB-y	2B-y	2d	2f
=93	=93	=93	=93
1D	1A	1d	1f
1BB-y	1B-y	1d	1f
=94	=94	=94	=94
0C	0G	0c	0e
=95	=95	=95	=95
1.C	1.G	1.c	1.c
2FF	2F	2A	2c
=96	=96	=96	=96
0FF	0F	1A	1c
.	.	[1c	[1a
=97	=97	=97	=97
1C	1E	1c]	2a]
.	.	.	2g
1D	1F	2.A	1f
.	.	4B-y	.
=98	=98	=98	=98
0C	0G	1c	0e
.	.	2r	.
.	.	[2c	.
=99	=99	=99	=99
0r	0r	2c]	2r
.	.	2B-y	1g
.	.	2c	.
.	.	2d	2f
=100	=100	=100	=100
0r	2r	2.c	2g
.	1c	.	2a
.	.	4d	.
.	.	4e	2g
.	.	4f	.
.	2B-y	[2g	2d
=101	=101	=101	=101
0r	2c	2g]	2e
.	2d	2.f	2f
.	2.c	.	1g
.	.	4d	.
.	.	2e	.
.	4B-y	.	.
=102	=102	=102	=102
0r	2A	2c	2.f
.	2B-y	1d	.
.	.	.	4d
.	1A	.	2e
.	.	[2c	4d
.	.	.	4c
=103	=103	=103	=103
2r	1G	2c]	2d
1G	.	2B-y	1b-y
.	2r	1c	.
2F	2c	.	2a
=104	=104	=104	=104
2G	2B-y	1.r	2dd
2A	2c	.	2.cc
2.G	1d	.	.
.	.	.	4a
.	.	[2G	2b-y
4F	.	.	.
=105	=105	=105	=105
2E	1c	2G]	2g
2F	.	2F	1a
1E	1r	1G	.
.	.	.	[2g
=106	=106	=106	=106
1D	0r	1A	2g]
.	.	.	2f#i
1r	.	2G	1g
.	.	[2c	.
=107	=107	=107	=107
1F	0r	2c]	2.a
.	.	1d	.
.	.	.	4g
2D	.	.	2f
2E	.	[2c	2e
=108	=108	=108	=108
2F	0r	2c]	2a
2G	.	2B-y	1g
1A	.	1c	.
.	.	.	2f#i
=109	=109	=109	=109
1G	1B-y	1d	2.g
.	.	.	4a
2r	2G	1r	2b-y
2F	2A	.	2cc
=110	=110	=110	=110
2D	2B-y	0r	2dd
2E	2c	.	1cc
2F	1d	.	.
2G	.	.	2b-y
=111	=111	=111	=111
1A	1c	1r	2cc
.	.	.	2f
[1G	2.d	1B-y	2g
.	.	.	[2b-y
.	4c	.	.
=112	=112	=112	=112
2G]	4B-y	2G	2b-]
.	4A	.	.
2F	1d	2A	2a
2G	.	2B-y	2g
2A	[2c	2c	2f
=113	=113	=113	=113
2G	2c]	1d	1g
2GG	1B-y	.	.
2AA	.	2c	1r
2C	2A	2e	.
=114	=114	=114	=114
2BB-y	2.G	2d	2r
2C	.	1c	2.g
.	4F	.	.
1GG	2E	.	.
.	.	.	4a
.	2D	2B-y	2b-y
=115	=115	=115	=115
0C	0E	1c	2a
.	.	.	2g
.	.	2r	2.cc
.	.	[2c	.
.	.	.	4b-y
=116	=116	=116	=116
0r	0r	2c]	2a
.	.	2c	2g
.	.	2d	2f
.	.	2c	2e
=117	=117	=117	=117
0r	1.r	2.f	4d
.	.	.	4e
.	.	.	4f
.	.	4e	4g
.	.	4d	2a
.	.	4c	.
.	[2G	2d	[2b-y
=118	=118	=118	=118
0r	2G]	1B-y	4b-]
.	.	.	4cc
.	2G	.	2dd
.	2A	2c	2cc
.	2G	2d	2b-y
=119	=119	=119	=119
2r	2.c	0e	1a
1C	.	.	.
.	4B-y	.	.
.	2A	.	1cc
2C	2G	.	.
=120	=120	=120	=120
2D	2F	2r	0r
2C	2E	2G	.
2.F	2.D	2.A	.
4E	4E	4G	.
=121	=121	=121	=121
2D	2F	2B-y	1.r
2C	2E	2A	.
4BB-y	2D	4G	.
4AA	.	4F	.
4GG	[2C	4E	[2g
4FF	.	4D	.
=122	=122	=122	=122
1GG	2C]	1E	4g]
.	.	.	4a
.	2BB-y	.	2b-y
1FF	2C	2F	2a
.	[2c	2A	2f
=123	=123	=123	=123
2r	4c]	4A	2.cc
.	4B-y	4B-y	.
1C	4A	4c	.
.	4G	4d	4b-y
.	2.c	1e	2a
2C	.	.	[2g
.	4B-y	.	.
=124	=124	=124	=124
1D	2A	2d	4g]
.	.	.	4f
.	2F	2B-y	1f
1C	1G	1c	.
.	.	.	2e
=125	=125	=125	=125
*M3/1	*M3/1	*M3/1	*M3/1
*met(3)	*met(3)	*met(3)	*met(3)
0F	0A	0c	0f
1r	1r	1r	1r
=126	=126	=126	=126
1F	1c	1f	1a
1F	1c	1f	1a
1F	1c	1f	1a
=127	=127	=127	=127
0F	0c	0f	0a
1F	1c	1f	1a
=128	=128	=128	=128
1F	1c	1f	1a
1F	1c	1f	1a
1F	1c	1f	1a
=129	=129	=129	=129
0BB-y	0d	0f	0b-y
1F	1c	1f	1a
=130	=130	=130	=130
0F	0c	0f	0a
1r	1r	1r	1r
=131	=131	=131	=131
1C	0c	0e	0g
1C	.	.	.
1C	1c	1e	1g
=132	=132	=132	=132
0F	1c	1f	1a
.	1c	1f	1a
1F	1c	1f	1a
=133	=133	=133	=133
0B-y	0d	0g	0b-y
1F	1c	1f	1a
=134	=134	=134	=134
1G	1B-y	1d	1g
0C	0c	0e	0g
=135	=135	=135	=135
*M2/1	*M2/1	*M2/1	*M2/1
*met(C|)	*met(C|)	*met(C|)	*met(C|)
0D	0A	0d	1f
.	.	.	2r
.	.	.	2f
=136	=136	=136	=136
0r	0r	1f	2.a
.	.	.	4b-y
.	.	2e	2cc
.	.	2d	[2dd
=137	=137	=137	=137
0r	1r	2.f	4dd]
.	.	.	4cc
.	.	.	1cc
.	.	4e	.
.	1G	1d	.
.	.	.	2bnXi
=138	=138	=138	=138
1F	2.A	2.c	1cc
.	4B-y	4B-y	.
2E	2c	2G	1r
2D	[2d	[2A	.
=139	=139	=139	=139
2F	2d]	2A]	1r
2E	1c	1G	.
1D	.	.	1d
.	2BnXi	2F	.
=140	=140	=140	=140
1C	1c	2G	2.e
.	.	2c	.
.	.	.	4f
1r	1r	2B-y	2g
.	.	2A	[2a
=141	=141	=141	=141
2r	0r	2.c	2a]
2C	.	.	1g
.	.	4B-y	.
2D	.	1A	.
[2F	.	.	2f#i
=142	=142	=142	=142
2F]	2r	1G	1g
2E	2G	.	.
2D	2A	1r	1r
4C	[2c	.	.
4D	.	.	.
=143	=143	=143	=143
4E	2c]	0r	0r
4F	.	.	.
1G	2B-y	.	.
.	2.A	.	.
[2F	.	.	.
.	4F	.	.
=144	=144	=144	=144
2F]	4G	1.r	0r
.	4A	.	.
2E	4B-y	.	.
.	4c	.	.
1F	2d	.	.
.	[2c	2c	.
=145	=145	=145	=145
1D	2c]	2d	1r
.	2B-y	1f	.
1C	1c	.	1g
.	.	2e	.
=146	=146	=146	=146
0r	1F	2d	2a
.	.	4c	1cc
.	.	4d	.
.	2r	4e	.
.	.	4f	.
.	2G	[2g	2b-y
=147	=147	=147	=147
1r	1A	2g]	1a
.	.	1f	.
1C	1c	.	2.g
.	.	2e	.
.	.	.	8fL
.	.	.	8eJ
=148	=148	=148	=148
2D	2B-y	1f	2d
1F	2A	.	2c
.	2F	1c	2a
2E	2G	.	[2g
=149	=149	=149	=149
2D	2A	1d	2g]
2BB-y	2B-y	.	1f
1C	1G	1c	.
.	.	.	2e
=150	=150	=150	=150
1FF	2F	2A	2f
.	2c	1f	1a
1C	2c	.	.
.	2c	2e	2g
=151	=151	=151	=151
2D	2.A	2d	2f
1F	.	2.c	1a
.	4G	.	.
.	2F	.	.
.	.	4B-y	.
2E	2G	2c	[2g
=152	=152	=152	=152
2D	2A	2d	2g]
2BB-y	2B-y	2d	1f
1C	1G	1c	.
.	.	.	2e
=153	=153	=153	=153
[0FFl	[0Fl	1A	[0fl
.	.	1c	.
=154	=154	=154	=154
0FF_	0F_	1.d	0f_
.	.	2c	.
=155	=155	=155	=155
0FF]	0F]	0cl	0f]
==	==	==	==
*-	*-	*-	*-
!!!system-decoration: s1,s2,s3,s4
!!!RDF**kern: i = editorial accidental
!!!RDF**kern: l = terminal long
!!!ENC: Janosch Umbreit
!!!END: 2026/06/03
!!!EED: Benjamin Ory
!!!EEV: 2026/06/09
!!!YEC: Copyright 2026 Benjamin Ory, All Rights Reserved
!!!ONB: Translated from MusicXML on 2026/06/09
!!muse2ps: C^@{COM}^i2I150v90,90,90,120c120z18l2770t130
